X:53
T:Mes sabots de bois
R:marche
C:trad.
A:Bretagne
O:France
M:2/4
L:1/8
Q:1/4=125
K:Eb
F|B,>C DE|F2F2|G2BB|1F3:|2F2F2|
|F2B>F|FED2|F2CC|A/2G3/2 F2|F2B>F|FED2|F2CC|FFB,2||
